X:1
T:Old Grey Goose, pt.1
R:jig
M:6/8
L:1/8
K:Em
GBG FAF|GEE EFE|DFA dAG|FDD DEF|
GFG AGA|BAB ~g3|edB BAF|GEE E2F:|
~G3 dBG|GAB dBG|~A3 ecA|AB/c/d ecA|
GFG dBG|efg gfg|edB BAF|1 GEE E2F:|2 GEE E3|]
efe edB|def g2e|fdd add|fag fed|
efe edB|def ~g3|edB BAF|1 GEE E3:|2 GEE E2c|]
<abc>
